src/assets/desktop/Hero.svg

<svg width="1200" height="320" viewBox="0 0 1200 320" fill="none" xmlns="http://www.w3.org/2000/svg">
<path d="M431.729 305.428C414.536 295.713 401.098 282.256 391.415 265.124C381.797 247.992 376.923 228.562 376.923 206.9C376.923 185.239 381.863 165.809 391.744 148.677C401.625 131.545 415.326 118.154 432.783 108.505C450.239 98.921 469.803 94.0636 491.541 94.0636C513.279 94.0636 532.382 98.921 549.575 108.636C566.767 118.351 580.205 131.807 589.889 148.939C599.506 166.072 604.381 185.502 604.381 207.163C604.381 228.825 599.44 248.254 589.559 265.387C579.678 282.519 565.977 295.91 548.521 305.559C531.064 315.143 511.5 320 489.762 320C468.024 320 448.921 315.143 431.729 305.428ZM522.172 261.317C531.064 256.197 537.915 248.976 542.658 239.59C547.401 230.203 549.772 219.438 549.772 207.294C549.772 188.784 544.371 173.817 533.633 162.396C522.896 150.974 508.47 145.264 490.421 145.264C472.372 145.264 468.024 147.824 459.132 152.944C450.239 158.064 443.388 165.284 438.645 174.671C433.902 184.057 431.531 194.823 431.531 206.966C431.531 219.11 433.902 229.875 438.645 239.262C443.388 248.648 450.305 255.934 459.329 261.186C468.354 266.437 478.893 268.997 490.816 268.997C502.739 268.997 513.213 266.437 522.106 261.317H522.172Z" fill="#1261FC"/>
<path d="M641.73 98.5272H695.219V145.264H698.907C700.884 139.159 703.321 133.711 706.219 128.853C709.118 123.996 712.477 119.598 716.1 115.725C722.688 108.439 730.592 102.991 739.748 99.5118C748.905 95.9672 758.39 94.1949 768.14 94.1949C790.866 94.1949 808.98 101.153 822.55 115.003C836.12 128.853 842.905 148.217 842.905 173.03V315.733H788.362V189.834C788.362 175.458 785.332 164.496 779.206 156.816C773.08 149.136 762.474 145.329 747.324 145.329C732.173 145.329 731.053 146.839 723.544 149.924C715.969 152.944 709.579 158.654 704.309 166.925C699.039 175.196 696.404 186.617 696.404 201.255V315.865H641.862V98.5272H641.73Z" fill="#1261FC"/>
<path d="M894.681 58.2236C887.962 51.5282 884.602 43.4543 884.602 33.9364C884.602 24.4185 887.962 16.7385 894.681 10.0431C901.4 3.34769 909.502 0 919.054 0C928.605 0 936.312 3.34769 943.031 10.0431C949.75 16.7385 953.11 24.681 953.11 33.9364C953.11 43.1918 949.75 51.5282 943.031 58.2236C936.312 64.919 928.342 68.2667 919.054 68.2667C909.766 68.2667 901.4 64.919 894.681 58.2236ZM892.243 98.5272H946.786V315.668H892.243V98.5272Z" fill="#1261FC"/>
<path d="M998.825 98.5272H1052.31V145.264H1056C1057.98 139.159 1060.42 133.711 1063.31 128.853C1066.21 123.996 1069.57 119.598 1073.2 115.725C1079.78 108.439 1087.69 102.991 1096.84 99.5118C1106 95.9672 1115.49 94.1949 1125.23 94.1949C1147.96 94.1949 1166.08 101.153 1179.65 115.003C1193.22 128.853 1200 148.217 1200 173.03V315.733H1145.46V189.834C1145.46 175.458 1142.43 164.496 1136.3 156.816C1130.18 149.136 1119.57 145.329 1104.42 145.329C1089.27 145.329 1088.15 146.839 1080.64 149.924C1073.06 152.944 1066.67 158.654 1061.4 166.925C1056.13 175.196 1053.5 186.617 1053.5 201.255V315.865H998.957V98.5272H998.825Z" fill="#1261FC"/>
<path d="M321.063 93.1446C321.063 94.1949 321.063 95.2451 321.063 96.2954C320.47 119.073 310.523 140.669 294.384 156.816L279.761 171.454L261.185 189.965L132.404 61.6369V318.228H0V1.35287e-05H225.548C277.521 1.35287e-05 320.733 41.3538 321.063 93.1446Z" fill="#1261FC"/>
<path d="M389.9 318.228L132.404 318.228L261.119 189.899L389.9 318.228Z" fill="#1261FC"/>
</svg>

<svg xmlns="http://www.w3.org/2000/svg" width="1200" height="320" fill="none"><path fill="#1261FC" d="M431.729 305.428c-17.193-9.715-30.631-23.172-40.314-40.304-9.618-17.132-14.492-36.562-14.492-58.224s4.94-41.091 14.821-58.223 23.582-30.523 41.039-40.172c17.456-9.584 37.02-14.441 58.758-14.441s40.841 4.857 58.034 14.572 30.63 23.171 40.314 40.303c9.617 17.133 14.492 36.563 14.492 58.224 0 21.662-4.941 41.091-14.822 58.224s-23.582 30.523-41.038 40.172C531.064 315.143 511.5 320 489.762 320s-40.841-4.857-58.033-14.572m90.443-44.111c8.892-5.12 15.743-12.341 20.486-21.727q7.114-14.08 7.114-32.296c0-18.51-5.401-33.477-16.139-44.898s-25.163-17.132-43.212-17.132-22.397 2.56-31.289 7.68-15.744 12.34-20.487 21.727q-7.114 14.08-7.114 32.295t7.114 32.296c4.743 9.386 11.66 16.672 20.684 21.924s19.564 7.811 31.487 7.811 22.397-2.56 31.29-7.68zM641.73 98.527h53.489v46.737h3.688c1.977-6.105 4.414-11.553 7.312-16.411a77 77 0 0 1 9.881-13.128c6.588-7.286 14.492-12.734 23.648-16.213 9.157-3.545 18.642-5.317 28.392-5.317 22.726 0 40.84 6.958 54.41 20.808s20.355 33.214 20.355 58.027v142.703h-54.543V189.834c0-14.376-3.03-25.338-9.156-33.018s-16.732-11.487-31.882-11.487-16.271 1.51-23.78 4.595c-7.575 3.02-13.965 8.73-19.235 17.001s-7.905 19.692-7.905 34.33v114.61h-54.542V98.527zm252.951-40.303c-6.719-6.696-10.079-14.77-10.079-24.288 0-9.517 3.36-17.197 10.079-23.893C901.4 3.348 909.502 0 919.054 0c9.551 0 17.258 3.348 23.977 10.043s10.079 14.638 10.079 23.893-3.36 17.592-10.079 24.288c-6.719 6.695-14.689 10.043-23.977 10.043s-17.654-3.348-24.373-10.043m-2.438 40.303h54.543v217.141h-54.543zm106.582 0h53.485v46.737h3.69c1.98-6.105 4.42-11.553 7.31-16.411a77 77 0 0 1 9.89-13.128c6.58-7.286 14.49-12.734 23.64-16.213 9.16-3.545 18.65-5.317 28.39-5.317 22.73 0 40.85 6.958 54.42 20.808S1200 148.217 1200 173.03v142.703h-54.54V189.834c0-14.376-3.03-25.338-9.16-33.018-6.12-7.68-16.73-11.487-31.88-11.487s-16.27 1.51-23.78 4.595c-7.58 3.02-13.97 8.73-19.24 17.001s-7.9 19.692-7.9 34.33v114.61h-54.543V98.527zm-677.762-5.382v3.15c-.593 22.778-10.54 44.374-26.679 60.521l-14.623 14.638-18.576 18.511L132.404 61.637v256.591H0V0h225.548c51.973 0 95.185 41.354 95.515 93.145"/><path fill="#1261FC" d="M389.9 318.228H132.404l128.715-128.329z"/></svg>
